src/dsmComponents/Icons/add-24px.svg

<svg width="22" height="22" xmlns="http://www.w3.org/2000/svg" xmlns:xlink="http://www.w3.org/1999/xlink"><defs><path d="M21 10h-9V1c0-.6-.4-1-1-1s-1 .4-1 1v9H1c-.6 0-1 .4-1 1s.4 1 1 1h9v9c0 .6.4 1 1 1s1-.4 1-1v-9h9c.6 0 1-.4 1-1s-.4-1-1-1z" id="add-24px_svg__a"/></defs><use fill="#737373" xlink:href="#add-24px_svg__a" fill-rule="evenodd"/></svg>

<?xml version="1.0" encoding="UTF-8"?>
<svg width="22px" height="22px" viewBox="0 0 22 22" version="1.1" xmlns="http://www.w3.org/2000/svg" xmlns:xlink="http://www.w3.org/1999/xlink">
    <!-- Generator: Sketch 59.1 (86144) - https://sketch.com -->
    <title>add-24px</title>
    <desc>Created with Sketch.</desc>
    <defs>
        <path d="M21,10 L12,10 L12,1 C12,0.4 11.6,0 11,0 C10.4,0 10,0.4 10,1 L10,10 L1,10 C0.4,10 0,10.4 0,11 C0,11.6 0.4,12 1,12 L10,12 L10,21 C10,21.6 10.4,22 11,22 C11.6,22 12,21.6 12,21 L12,12 L21,12 C21.6,12 22,11.6 22,11 C22,10.4 21.6,10 21,10 Z" id="path-1"></path>
    </defs>
    <g id="Final" stroke="none" stroke-width="1" fill="none" fill-rule="evenodd">
        <g id="All-Nucleo-Icons" transform="translate(-609.000000, -149.000000)">
            <g id="Solo/Nucleo/24px/add" transform="translate(608.000000, 148.000000)">
                <g id="e-add" transform="translate(1.000000, 1.000000)">
                    <g id="Colour/Default-Colour">
                        <mask id="mask-2" fill="white">
                            <use xlink:href="#path-1"></use>
                        </mask>
                        <use id="Mask" fill="#000000" fill-rule="nonzero" xlink:href="#path-1"></use>
                        <g id="colour/neutral/chia" mask="url(#mask-2)" fill="#737373">
                            <g transform="translate(-21.000000, -21.000000)" id="Colour">
                                <rect x="0" y="0" width="64" height="64"></rect>
                            </g>
                        </g>
                    </g>
                </g>
            </g>
        </g>
    </g>
</svg>
